wp-content/themes/sd-accesslasers/public/images/footer/location.svg

<?xml version="1.0" encoding="UTF-8"?>
<svg width="24px" height="24px" viewBox="0 0 24 24" version="1.1" xmlns="http://www.w3.org/2000/svg" xmlns:xlink="http://www.w3.org/1999/xlink">
    <!-- Generator: Sketch 55 (78076) - https://sketchapp.com -->
    <title>right copy 2</title>
    <desc>Created with Sketch.</desc>
    <g id="Symbols" stroke="none" stroke-width="1" fill="none" fill-rule="evenodd">
        <g id="Footer" transform="translate(-1618.000000, -577.000000)" fill="#ED3D4A" fill-rule="nonzero">
            <g id="right">
                <g transform="translate(795.000000, 0.000000)">
                    <g id="icons" transform="translate(190.000000, 577.000000)">
                        <g id="Location" transform="translate(633.000000, 0.000000)">
                            <g id="search-location">
                                <path d="M9.73099415,4.5 C7.41380117,4.5 5.52935673,6.3890625 5.52935673,8.71078125 C5.52935673,10.3354688 7.32304094,12.7982812 8.82900585,14.5795312 C9.05403509,14.8467187 9.38292398,15 9.73099415,15 C10.0790643,15 10.4079532,14.8467188 10.634386,14.5795312 C12.1389474,12.7982812 13.9326316,10.335 13.9326316,8.71078125 C13.9326316,6.3890625 12.0481871,4.5 9.73099415,4.5 Z M9.73099415,13.3232813 C8.07906433,11.3217187 7.02643275,9.5315625 7.02643275,8.7103125 C7.02643275,7.21546875 8.24,5.99953125 9.73099415,5.99953125 C11.2219883,5.99953125 12.4355556,7.21546875 12.4355556,8.7103125 C12.4355556,9.5315625 11.382924,11.3217187 9.73099415,13.3232813 Z M9.73099415,7.5 C9.11111111,7.5 8.60818713,8.0034375 8.60818713,8.625 C8.60818713,9.24609375 9.11111111,9.75 9.73099415,9.75 C10.3508772,9.75 10.8538012,9.24609375 10.8538012,8.625 C10.8538012,8.0034375 10.3508772,7.5 9.73099415,7.5 Z M23.7880702,22.5740625 L17.7534503,16.5271875 C17.645848,16.419375 17.5054971,16.363125 17.3557895,16.363125 L16.8739181,16.363125 C18.4785965,14.6240625 19.4610526,12.30375 19.4610526,9.74953125 C19.4610526,4.3640625 15.1054971,0 9.73052632,0 C4.35555556,0 0,4.3640625 0,9.74953125 C0,15.135 4.35555556,19.4990625 9.73052632,19.4990625 C12.2802339,19.4990625 14.5955556,18.5146875 16.3312281,16.9115625 L16.3312281,17.3896875 C16.3312281,17.5396875 16.3920468,17.6803125 16.4949708,17.788125 L22.5295906,23.8345313 C22.7494737,24.0548438 23.1050292,24.0548438 23.3249123,23.8345313 L23.7880702,23.3704688 C24.0084211,23.150625 24.0084211,22.794375 23.7880702,22.5740625 Z M9.73052632,17.9990625 C5.17894737,17.9990625 1.49707602,14.3104688 1.49707602,9.74953125 C1.49707602,5.18859375 5.17894737,1.5 9.73052632,1.5 C14.2821053,1.5 17.9639766,5.1890625 17.9639766,9.74953125 C17.9639766,14.3104688 14.2825731,17.9990625 9.73052632,17.9990625 Z" id="Shape"></path>
                            </g>
                        </g>
                    </g>
                </g>
            </g>
        </g>
    </g>
</svg>

<svg width="24" height="24" viewBox="0 0 24 24" version="1.1" xmlns="http://www.w3.org/2000/svg"><g id="Symbols" stroke="none" stroke-width="1" fill="none" fill-rule="evenodd"><g id="Footer" transform="translate(-1618 -577)" fill="#ED3D4A" fill-rule="nonzero"><g transform="translate(795)" id="right"><g id="icons" transform="translate(190 577)"><g id="Location" transform="translate(633)"><g id="search-location"><path d="M9.731 4.5a4.21 4.21 0 0 0-4.202 4.21c0 1.625 1.794 4.088 3.3 5.87a1.177 1.177 0 0 0 1.805 0c1.505-1.782 3.299-4.245 3.299-5.87A4.21 4.21 0 0 0 9.73 4.5zm0 8.823C8.079 11.322 7.026 9.532 7.026 8.71A2.71 2.71 0 0 1 9.731 6a2.71 2.71 0 0 1 2.705 2.71c0 .822-1.053 2.612-2.705 4.613zm0-5.823a1.124 1.124 0 1 0 .002 2.248A1.124 1.124 0 0 0 9.731 7.5zm14.057 15.074l-6.035-6.047a.555.555 0 0 0-.397-.164h-.482A9.717 9.717 0 0 0 19.46 9.75C19.46 4.364 15.104 0 9.73 0 4.356 0 0 4.364 0 9.75c0 5.385 4.356 9.75 9.73 9.75 2.55 0 4.866-.985 6.601-2.588v.478c0 .15.061.29.164.398l6.035 6.047c.22.22.575.22.795 0l.463-.465a.562.562 0 0 0 0-.796zM9.731 18c-4.552 0-8.234-3.689-8.234-8.25 0-4.56 3.683-8.25 8.234-8.25s8.233 3.69 8.233 8.25c0 4.56-3.681 8.25-8.233 8.25z" id="Shape"/></g></g></g></g></g></g></svg>
